!!!OTL: AUF IHR BRUEDER SINGET LIEDER
!!!ARE: Europa, Mitteleuropa, Deutschland
!!!SCT: F0498
!!!YEM: Copyright 1995, estate of Helmut Schaffrath.
**kern
*ICvox
*Ivox
*M4/4
*k[b-e-a-]
*E-:
=1
{4.G
8F
8F
8E-
4E-
=2
4.B-
8A-
8A-
8G
4G}
=3
{4.e-
8d
8c
8B-
8A-
8G
=4
4.B-
8G
8F
8B-
8A-
8F}
=5
{4.G
8F
8F
8E-
4E-
=6
4.B-
8A-
8A-
8G
4G}
=7
{4.e-
8d
8c
8B-
8A-
8G
=8
4.B-
8G
4F
4r}
=9
{4.d
8d
8d
8c
8B-
8c
=10
4d
4e-
8f
8e-
8d
8c}
=11
{4.d
8d
8d
8c
8B-
8c
=12
4d
4e-
8f
8e-
4d}
=13
{4.e-
8B-
4.c
8G
=14
4A-
4B-
4c
4r}
=15
{8e-
8d
8c
8B-
8c
8d
8e-
8f
=16
4g
4f
4e-
4r}
==
!!!AGN: Studenten - Lied
!!!ONB: ESAC (Essen Associative Code) Database: FINK
!!!AMT: simple quadruple
!!!AIN: vox
!!!EED: Helmut Schaffrath
!!!EEV: 1.0
*-
